packages/icons/src/service-custom-connector.svg

<svg fill="none" viewBox="0 0 32 33" xmlns="http://www.w3.org/2000/svg"><path clip-rule="evenodd" d="m8.80757 7.36569 5.04483-.00011c.0009 0 .0023 0 .006.00153.0046.0019.0138.00678.0254.01758.0254.02372.0468.06141.0533.10223.1017.63723.3384 1.58187.9153 2.38501.6044.84147 1.5691 1.50137 2.9976 1.50137 1.4294 0 2.3956-.6606 3.0019-1.50171.5791-.80321.8186-1.74795.9222-2.38485.0067-.04093.0281-.07845.0534-.10194.0115-.01069.0205-.01549.025-.01735.0036-.00148.005-.00148.0058-.00147l5.3365.00028-.1724 19.16444h-18.21489v-4.899c0-.9367-.76803-1.5926-1.56292-1.6792-.52909-.0576-1.15803-.206-1.63535-.5335-.4313-.296-.77804-.7587-.77804-1.6104 0-.8708.36477-1.3883.83671-1.7374.50853-.3762 1.16537-.5673 1.6906-.6581.75244-.1301 1.449-.7747 1.449-1.6628zm5.04483-1.6001-5.04485.00011c-.88356.00001-1.60003.71627-1.60003 1.59999v6.38461c0 .0008.00001.0022-.00154.006-.00191.0046-.00678.0138-.01755.0255-.02363.0257-.06137.0476-.10257.0547-.63355.1096-1.5722.3586-2.36945.9483-.83386.6169-1.48519 1.591-1.48519 3.0238 0 1.4099.63266 2.3532 1.47275 2.9296.79408.5449 1.72853.7353 2.3674.8049.04427.0048.08685.0266.11421.0543.01243.0126.01805.0227.02022.0277.00172.004.00172.0055.00172.0066v4.899c0 .8837.71634 1.6 1.59999 1.6h18.21489c.878 0 1.592-.7076 1.5999-1.5856l.1724-19.16444c.008-.88939-.7109-1.61438-1.6-1.6144l-5.3363-.00027c-.8935-.00006-1.54.70453-1.6635 1.46378-.0864.53106-.2715 1.19384-.6409 1.70614-.342.47443-.8481.83737-1.704.83737-.8551 0-1.3586-.36211-1.6981-.83476-.367-.51097-.55-1.17257-.6348-1.70388-.1217-.76173-.7694-1.46905-1.6647-1.46905zm1.86 7.59841c-1.6009 0-2.9053 1.2551-2.9951 2.8332-.0032.0293-.0049.0589-.0049.0887l.0002.0471-.0002.0375c0 .106.0055.2109.0163.3144.125 1.5459.9508 3.0056 1.8346 4.1595.8971 1.1714 1.9255 2.1202 2.5876 2.6525.0279.0224.0614.0464.1004.0693.3963.2614.9134.2634 1.3116.0059.039-.0221.0761-.0472.1109-.0752.6621-.5323 1.6905-1.4811 2.5876-2.6525.8838-1.1539 1.7096-2.6136 1.8346-4.1595.0108-.1035.0163-.2084.0163-.3144l-.0002-.0375.0002-.0471c0-.0298-.0017-.0594-.0049-.0887-.0898-1.5781-1.3942-2.8332-2.9951-2.8332-.87 0-1.6524.3707-2.2.9625-.5475-.5918-1.3299-.9625-2.1999-.9625zm-1.3998 2.9831.0001-.0153.0007-.0153c.028-.7536.6459-1.3525 1.399-1.3525.7534 0 1.3715.5995 1.399 1.3536.016.4382.3817.7819.82.7706h.0026c.4226-.0107.7639-.3482.7793-.7706.0275-.7542.6456-1.3536 1.399-1.3536.7531 0 1.3709.5989 1.399 1.3525l.0007.0153.0001.0153.0002.0234c0 .0525-.0028.1041-.0083.1546-.0008.0077-.0015.0154-.0021.0232-.0862 1.0961-.6975 2.2614-1.5108 3.3233-.6995.9133-1.497 1.6837-2.0788 2.1787-.5817-.495-1.3792-1.2654-2.0787-2.1787-.8133-1.0619-1.4246-2.2272-1.5108-3.3233-.0006-.0078-.0013-.0155-.0021-.0232-.0055-.0505-.0083-.1021-.0083-.1546z" fill="#0278d5" fill-rule="evenodd"/></svg>

<svg viewBox="0 0 32 33" fill="none" xmlns="http://www.w3.org/2000/svg"><path fill-rule="evenodd" clip-rule="evenodd" d="M8.80757 7.36569L13.8524 7.36558C13.8533 7.36558 13.8547 7.36558 13.8584 7.36711C13.863 7.36901 13.8722 7.37389 13.8838 7.38469C13.9092 7.40841 13.9306 7.4461 13.9371 7.48692C14.0388 8.12415 14.2755 9.06879 14.8524 9.87193C15.4568 10.7134 16.4215 11.3733 17.85 11.3733C19.2794 11.3733 20.2456 10.7127 20.8519 9.87159C21.431 9.06838 21.6705 8.12364 21.7741 7.48674C21.7808 7.44581 21.8022 7.40829 21.8275 7.3848C21.839 7.37411 21.848 7.36931 21.8525 7.36745C21.8561 7.36597 21.8575 7.36597 21.8583 7.36598L27.1948 7.36626L27.0224 26.5307H8.80751V21.6317C8.80751 20.695 8.03948 20.0391 7.24459 19.9525C6.7155 19.8949 6.08656 19.7465 5.60924 19.419C5.17794 19.123 4.8312 18.6603 4.8312 17.8086C4.8312 16.9378 5.19597 16.4203 5.66791 16.0712C6.17644 15.695 6.83328 15.5039 7.35851 15.4131C8.11095 15.283 8.80751 14.6384 8.80751 13.7503L8.80757 7.36569ZM13.8524 5.76559L8.80755 5.7657C7.92399 5.76571 7.20752 6.48197 7.20752 7.36569L7.20752 13.7503C7.20752 13.7511 7.20753 13.7525 7.20598 13.7563C7.20407 13.7609 7.1992 13.7701 7.18843 13.7818C7.1648 13.8075 7.12706 13.8294 7.08586 13.8365C6.45231 13.9461 5.51366 14.1951 4.71641 14.7848C3.88255 15.4017 3.23122 16.3758 3.23122 17.8086C3.23122 19.2185 3.86388 20.1618 4.70397 20.7382C5.49805 21.2831 6.4325 21.4735 7.07137 21.5431C7.11564 21.5479 7.15822 21.5697 7.18558 21.5974C7.19801 21.61 7.20363 21.6201 7.2058 21.6251C7.20752 21.6291 7.20752 21.6306 7.20752 21.6317V26.5307C7.20752 27.4144 7.92386 28.1307 8.80751 28.1307H27.0224C27.9004 28.1307 28.6144 27.4231 28.6223 26.5451L28.7947 7.38066C28.8027 6.49127 28.0838 5.76628 27.1947 5.76626L21.8584 5.76599C20.9649 5.76593 20.3184 6.47052 20.1949 7.22977C20.1085 7.76083 19.9234 8.42361 19.554 8.93591C19.212 9.41034 18.7059 9.77328 17.85 9.77328C16.9949 9.77328 16.4914 9.41117 16.1519 8.93852C15.7849 8.42755 15.6019 7.76595 15.5171 7.23464C15.3954 6.47291 14.7477 5.76559 13.8524 5.76559ZM15.7124 13.364C14.1115 13.364 12.8071 14.6191 12.7173 16.1972C12.7141 16.2265 12.7124 16.2561 12.7124 16.2859L12.7126 16.333L12.7124 16.3705C12.7124 16.4765 12.7179 16.5814 12.7287 16.6849C12.8537 18.2308 13.6795 19.6905 14.5633 20.8444C15.4604 22.0158 16.4888 22.9646 17.1509 23.4969C17.1788 23.5193 17.2123 23.5433 17.2513 23.5662C17.6476 23.8276 18.1647 23.8296 18.5629 23.5721C18.6019 23.55 18.639 23.5249 18.6738 23.4969C19.3359 22.9646 20.3643 22.0158 21.2614 20.8444C22.1452 19.6905 22.971 18.2308 23.096 16.6849C23.1068 16.5814 23.1123 16.4765 23.1123 16.3705L23.1121 16.333L23.1123 16.2859C23.1123 16.2561 23.1106 16.2265 23.1074 16.1972C23.0176 14.6191 21.7132 13.364 20.1123 13.364C19.2423 13.364 18.4599 13.7347 17.9123 14.3265C17.3648 13.7347 16.5824 13.364 15.7124 13.364ZM14.3126 16.3471L14.3127 16.3318L14.3134 16.3165C14.3414 15.5629 14.9593 14.964 15.7124 14.964C16.4658 14.964 17.0839 15.5635 17.1114 16.3176C17.1274 16.7558 17.4931 17.0995 17.9314 17.0882L17.934 17.0882C18.3566 17.0775 18.6979 16.74 18.7133 16.3176C18.7408 15.5634 19.3589 14.964 20.1123 14.964C20.8654 14.964 21.4832 15.5629 21.5113 16.3165L21.512 16.3318L21.5121 16.3471L21.5123 16.3705C21.5123 16.423 21.5095 16.4746 21.504 16.5251C21.5032 16.5328 21.5025 16.5405 21.5019 16.5483C21.4157 17.6444 20.8044 18.8097 19.9911 19.8716C19.2916 20.7849 18.4941 21.5553 17.9123 22.0503C17.3306 21.5553 16.5331 20.7849 15.8336 19.8716C15.0203 18.8097 14.409 17.6444 14.3228 16.5483C14.3222 16.5405 14.3215 16.5328 14.3207 16.5251C14.3152 16.4746 14.3124 16.423 14.3124 16.3705L14.3126 16.3471Z" fill="#0278D5"/></svg>
